X: 1
T: Mrs Adie
C: Major William Logan
R: strathspey
Z: 2014 John Chambers <jc:trillian.mit.edu>
S: Image from George Meikle, via Sylvia Miskoe
N: Part of a set for The Gentleman, in a dance program from 2012
B: Athole Collection, 1884, p.279.
B: Carlin (The Gow Collection), 1986, #171.
B: Cole (1000 Fiddle Tunes), 1940, p.124.
B: MacDonald (The Skye Collection), 1887, p.125.
M: 4/4
L: 1/8
K: Bb
F |\
"Bb"B2 (3BAB "F7"c>B A<F | "C7"B<B c>B "F7"A<F "Bb7"F>_A |\
"Eb"G<G B>G "Bb"F>D B,>D | "F7"E<E F>D "Bb"D<B, B, :|
B |\
"Bb"d>B f>B g>B f>B | "C7"A/B/c c>B "F7"A<F F2 |\
"Eb"G<G B>G "Bb"F>D B,>D | "F7"E<E F>E "Bb"D<B, B, |]
B |\
"Bb"d>B f>B b>B f>B | "C7"A/B/c c>B "F7"A<F "Bb7"F>_A |\
"Eb"G<E E>G "Bb"F<D D>F | "F7"E>C C>F "Bb"D<B, B, |]
